X: 1898
T: Step It Out Mary
B: australian traditional tunes wiki
M:4/4
L:1/8
R: Set Tune
Q: 1/4=100
K:D
V:1 
|:"D"DDDDD2E2|F2A2B2A2|ddddd2A2|"A7"B2A2E4|"D"FFFFF2E2|"D"F2A2B2A2|ddddd2c2|"A7"B2c2"D"d4:|
"D"fffff2e2|"A7"c2d2e2f2|"G"ggggg2B2|"A7"e2d2"D"A4|"D"fffff2e2|"A7"c2d2e2f2|"A7"a4"G"g2e2|"A7"B2c2"D"d4|
"A"e2c2"E7"d2B2|"A"c2A2c2d2|e4f3e|"D"e2d2A4|"D"fffff2e2|"A7"c2d2e2f2|"A7"a4"G"g2e2|"A7"B2c2"D"d4||
% abcbook-tune_id 6342d53a6b16aeb50cc77339


% abcbook-boost 0
% abcbook-tablature 
% abcbook-transpose 
% abcbook-lastupdated 1665324391462
% abcbook-soundfonts 
% abcbook-repeats 1
% NFF Book 2010

